!!!COM: Felix Mendelssohn
!!!CNT: Deutsch
!!!TXO: Deutsch
!!!OTL: Entsagung
!!!LYR: J. G. Droysen
!!!OPS: Op. 9
!!!ONM: No. 11
!!!ENC: Daniel Alt & Leigh VanHandel
!!!YOR: Sa2mmtliche Lieder fu2r eine Singstimme 
!!!YOR: Neu revidirt von Dr. L. Benda, Ausgabe fu2r mittlere Stimme
!!!YOR: Braunschweig. Henry Litolff's Verlag. Boston and New York: Arthur P. Schmidt.
!!!ODT: 1830/
!!NB: Date is publication date 
**kern
*staff1
=1-
*clefG2
*k[b-]
*met(C)
*M4/4
2r
{4.f
8f
=2
4b-
4a
4g
8g
8cc
=3
8b-
8a
8a
8r
4a
4cc
=4
4.ff
8ee
4dd
4b-
=5
4g}
4r
{4g
4a
=6
4b-
4a
4g
4a
=7
4b-
8a
8r
4.a
8dd
=8
4dd
4dd-
4.ff
8ee
=9
4ee
4dd}
4r
{4dd
=10
4cc
4g
4a
4b-
=11
2a
2g
=12
2f}
4r
{4f
=13
[1ee-
=14
4ee-]
4dd
8cc
8b-
8a
8g
=15
4f
2a
4g
=16
2f}
2r
=17
2r
{4.f
8f
=18
4b-
4a
4g
8g
8cc
=19
8b-
8a
8a
8r
4a
4cc
=20
4.ff
8ee
4dd
4b-
=21
4g}
4r
{4g
8g
8a
=22
4b-
4a
4g
8g
8a
=23
4b-
8a
8r
4.a
8dd
=24
4dd
4dd-
4.ff
8ee
=25
4ee
4dd}
4r
{4dd
=26
4cc
4g
4a
4b-
=27
2a
2g
=28
4f}
4r
{4a
8g
8f
=29
[1ee-
=30
4ee-]
4dd
8cc
8b-
8a
8g
=31
4f
2a
4g
=32
2f}
2r
==
*-
